src/assets/icons/compass.svg

<svg width="14" height="14" viewBox="0 0 14 14" fill="none" xmlns="http://www.w3.org/2000/svg">
<g id="compass">
<g clip-path="url(#clip0_156_4534)">
<path id="Vector" fill-rule="evenodd" clip-rule="evenodd" d="M1.16667 7C1.16667 3.77834 3.77834 1.16667 7 1.16667C10.2217 1.16667 12.8333 3.77834 12.8333 7C12.8333 10.2217 10.2217 12.8333 7 12.8333C3.77834 12.8333 1.16667 10.2217 1.16667 7ZM7 0C3.13401 0 0 3.13401 0 7C0 10.866 3.13401 14 7 14C10.866 14 14 10.866 14 7C14 3.13401 10.866 0 7 0ZM6.26888 5.10994L10.0644 3.59327C10.1267 3.56993 10.1967 3.56993 10.2589 3.59327C10.3989 3.64771 10.4611 3.79548 10.4067 3.9277L8.88999 7.72326C8.67222 8.25215 8.26 8.67214 7.73111 8.88214L3.93555 10.3988C3.87332 10.4222 3.80332 10.4222 3.7411 10.3988C3.6011 10.3444 3.53888 10.1966 3.59333 10.0644L5.10999 6.26882C5.32777 5.73993 5.73999 5.31994 6.26888 5.10994ZM6.22222 6.99994C6.22222 7.42771 6.57222 7.77771 6.99999 7.77771C7.42777 7.77771 7.77777 7.42771 7.77777 6.99994C7.77777 6.57216 7.42777 6.22216 6.99999 6.22216C6.57222 6.22216 6.22222 6.57216 6.22222 6.99994Z" fill="black"/>
</g>
</g>
<defs>
<clipPath id="clip0_156_4534">
<rect width="14" height="14" fill="white"/>
</clipPath>
</defs>
</svg>

<svg xmlns="http://www.w3.org/2000/svg" fill="none" viewBox="0 0 14 14"><g clip-path="url(#a)"><path fill="#000" fill-rule="evenodd" d="M1.167 7a5.833 5.833 0 1 1 11.666 0A5.833 5.833 0 0 1 1.167 7M7 0a7 7 0 1 0 0 14A7 7 0 0 0 7 0m-.731 5.11 3.795-1.517a.28.28 0 0 1 .195 0c.14.055.202.202.148.335L8.89 7.723c-.218.53-.63.95-1.159 1.16l-3.795 1.516a.28.28 0 0 1-.195 0 .25.25 0 0 1-.148-.335L5.11 6.27c.218-.53.63-.95 1.159-1.16M6.222 7c0 .428.35.778.778.778A.78.78 0 0 0 7.778 7 .78.78 0 0 0 7 6.222.78.78 0 0 0 6.222 7" clip-rule="evenodd"/></g><defs><clipPath id="a"><path fill="#fff" d="M0 0h14v14H0z"/></clipPath></defs></svg>
